X:1
T: Lady Gray
C:Nathaniel Gow
R:Strathspey
Q: 128
K:F
M:4/4
L:1/16
f2|:c3d f3g agfe f4|c3d f2a2 g2G2 B2d2|c3d f3g agfe f3d|cA3 f3d c2F2 Af3:|
c2F2 F3c dcBA cF3|Ac3 f3c d2G2 B2d2|c2F2 F3c dcBA cF3|Ac3 f3d c2F2 A2f2|
c2F2 F3c dcBA cF3|Ac3 f3c d2G2 B2d2|c3A a3f g3e f3d|c3f efge f2F2 Af3|
|:c3d f3g agfe f4|c3d f2a2 g2G2 B2d2|c3d f3g agfe f3d|1cA3 f3d c2F2 A2f2:|2cA3 f3d c2F2 A2d2|
c2A2 f2A2 a2A2 c2A2|c2A2 f3c d2G2 B2d2|c2A2 f3c a2f2 g3e|f3c df3 c2F2 Af3|
c2A2 f2A2 a2A2 c2A2|c2f2 e2f2 g2G2 Bd3|cA3 a3f g3e f3d|c3f efge f3F Af3||
%|:c3d f3g agfe f4|c3d f2a2 g2G2 B2d2|c3d f3g agfe f3d|cA3 f3d c2F2 Af3:|
%c2F2 F3c dcBA cF3|Ac3 f3c d2G2 B2d2|c2F2 F3c dcBA cF3|Ac3 f3d c2F2 A2f2|
%c2F2 F3c dcBA cF3|Ac3 f3c d2G2 B2d2|c3A a3f g3e f3d|c3f efge f2F2 Af3||
